img/icons/github.svg

<svg width="25" height="25" viewBox="0 0 25 25" fill="none" xmlns="http://www.w3.org/2000/svg">
<path d="M12.9771 2.27808C7.45205 2.27808 2.97705 6.75308 2.97705 12.2781C2.97592 14.3774 3.63587 16.4237 4.86327 18.1268C6.09067 19.8298 7.8232 21.1031 9.81505 21.7661C10.3151 21.8531 10.5021 21.5531 10.5021 21.2901C10.5021 21.0531 10.4891 20.2661 10.4891 19.4281C7.97705 19.8911 7.32705 18.8161 7.12705 18.2531C7.01405 17.9651 6.52705 17.0781 6.10205 16.8401C5.75205 16.6531 5.25205 16.1901 6.08905 16.1781C6.87705 16.1651 7.43905 16.9031 7.62705 17.2031C8.52705 18.7151 9.96505 18.2901 10.5391 18.0281C10.6271 17.3781 10.8891 16.9411 11.1771 16.6911C8.95205 16.4411 6.62705 15.5781 6.62705 11.7531C6.62705 10.6651 7.01405 9.76608 7.65205 9.06508C7.55205 8.81508 7.20205 7.79008 7.75205 6.41508C7.75205 6.41508 8.58905 6.15308 10.5021 7.44108C11.3161 7.21514 12.1572 7.10142 13.0021 7.10308C13.8521 7.10308 14.7021 7.21508 15.5021 7.44008C17.4141 6.14008 18.2521 6.41608 18.2521 6.41608C18.8021 7.79108 18.4521 8.81608 18.3521 9.06608C18.9891 9.76608 19.3771 10.6531 19.3771 11.7531C19.3771 15.5911 17.0401 16.4411 14.8151 16.6911C15.1771 17.0031 15.4901 17.6031 15.4901 18.5411C15.4901 19.8781 15.4771 20.9531 15.4771 21.2911C15.4771 21.5531 15.6651 21.8651 16.1651 21.7651C18.1501 21.0949 19.875 19.8191 21.097 18.1172C22.3189 16.4154 22.9765 14.3732 22.9771 12.2781C22.9771 6.75308 18.5021 2.27808 12.9771 2.27808Z" fill="#607B96"/>
</svg>

<svg width="25" height="25" fill="none" xmlns="http://www.w3.org/2000/svg"><path d="M12.977 2.278c-5.525 0-10 4.475-10 10a9.994 9.994 0 006.838 9.488c.5.087.687-.213.687-.476 0-.237-.013-1.024-.013-1.862-2.512.463-3.162-.612-3.362-1.175-.113-.288-.6-1.175-1.025-1.413-.35-.187-.85-.65-.013-.662.788-.013 1.35.725 1.538 1.025.9 1.512 2.338 1.087 2.912.825.088-.65.35-1.087.638-1.337-2.225-.25-4.55-1.113-4.55-4.938 0-1.088.387-1.987 1.025-2.688-.1-.25-.45-1.275.1-2.65 0 0 .837-.262 2.75 1.026a9.28 9.28 0 012.5-.338c.85 0 1.7.112 2.5.337 1.912-1.3 2.75-1.024 2.75-1.024.55 1.375.2 2.4.1 2.65.637.7 1.025 1.587 1.025 2.687 0 3.838-2.337 4.688-4.562 4.938.362.312.675.912.675 1.85 0 1.337-.013 2.412-.013 2.75 0 .262.188.574.688.474a10.016 10.016 0 006.812-9.487c0-5.525-4.475-10-10-10z" fill="#607B96"/></svg>
